app/images/dest/icons/benefits-item-3.svg

<svg width="98" height="28" viewBox="0 0 98 28" fill="none" xmlns="http://www.w3.org/2000/svg">
<path d="M97.9342 1.3375C97.9442 1.06155 97.7287 0.82966 97.4528 0.819572C97.1768 0.809484 96.9449 1.02501 96.9348 1.30097L97.9342 1.3375ZM43.7779 5.39861L44.0491 4.97855L43.7779 5.39861ZM2.46482 26.8777C2.59203 27.1228 2.89384 27.2184 3.13894 27.0912L7.13297 25.0181C7.37806 24.8909 7.47362 24.589 7.34641 24.344C7.21919 24.0989 6.91738 24.0033 6.67228 24.1305L3.12204 25.9733L1.27929 22.423C1.15208 22.1779 0.850262 22.0823 0.605167 22.2096C0.360073 22.3368 0.264515 22.6386 0.391726 22.8837L2.46482 26.8777ZM97.4345 1.31924C96.9348 1.30097 96.9348 1.30077 96.9348 1.30071C96.9348 1.30089 96.9348 1.30097 96.9348 1.30131C96.9348 1.30199 96.9347 1.30325 96.9347 1.30506C96.9345 1.30869 96.9342 1.31456 96.9339 1.32262C96.9331 1.33876 96.9318 1.36367 96.9298 1.39693C96.9258 1.46347 96.9191 1.56341 96.908 1.69343C96.8859 1.95352 96.8465 2.33368 96.7781 2.80735C96.6412 3.75533 96.3881 5.07435 95.9245 6.55331C94.9954 9.51742 93.2334 13.0841 89.9059 15.6177C83.3029 20.6456 70.1624 21.8389 44.0491 4.97855L43.5067 5.81866C69.667 22.7093 83.3549 21.8629 90.5117 16.4133C94.0642 13.7083 95.915 9.92679 96.8787 6.85243C97.3616 5.31216 97.625 3.93936 97.7678 2.95033C97.8393 2.4555 97.8808 2.05585 97.9044 1.77827C97.9162 1.63946 97.9236 1.53109 97.928 1.45653C97.9303 1.41925 97.9318 1.39041 97.9327 1.37043C97.9332 1.36044 97.9335 1.35267 97.9338 1.34717C97.9339 1.34441 97.934 1.34223 97.934 1.34062C97.9341 1.33981 97.9341 1.33903 97.9341 1.33863C97.9341 1.33799 97.9342 1.3375 97.4345 1.31924ZM44.0491 4.97855C36.8741 0.345952 30.6416 -0.659235 25.326 0.509078C20.0251 1.67413 15.7153 4.98329 12.3375 8.82969C8.95859 12.6774 6.48407 17.0945 4.85608 20.5399C4.04119 22.2645 3.4363 23.7501 3.03471 24.8059C2.83387 25.3339 2.68378 25.7546 2.58361 26.0442C2.53352 26.1891 2.4959 26.3012 2.47066 26.3775C2.45803 26.4157 2.4485 26.4449 2.44205 26.4649C2.43883 26.4749 2.43636 26.4825 2.43468 26.4878C2.43383 26.4904 2.43318 26.4925 2.43272 26.4939C2.43249 26.4946 2.43229 26.4953 2.43217 26.4956C2.43202 26.4961 2.43192 26.4965 2.90859 26.6474C3.38527 26.7983 3.38526 26.7983 3.3853 26.7982C3.38537 26.798 3.38546 26.7977 3.38561 26.7972C3.38592 26.7963 3.38641 26.7947 3.3871 26.7926C3.38847 26.7883 3.39061 26.7816 3.39351 26.7727C3.39931 26.7547 3.40817 26.7275 3.4201 26.6914C3.44398 26.6192 3.48014 26.5115 3.52869 26.3711C3.62579 26.0903 3.77243 25.6792 3.96937 25.1614C4.36333 24.1257 4.95822 22.6644 5.76024 20.9671C7.36607 17.5686 9.79386 13.2418 13.0889 9.48954C16.3851 5.73595 20.521 2.58901 25.5406 1.48577C30.5454 0.385783 36.5083 1.30009 43.5067 5.81866L44.0491 4.97855Z" fill="black"/>
</svg>

<svg xmlns="http://www.w3.org/2000/svg" width="98" height="28" fill="none"><path fill="#000" d="M97.934 1.337a.5.5 0 0 0-1-.036l1 .036ZM43.778 5.4l.271-.42-.271.42ZM2.465 26.878a.5.5 0 0 0 .674.213l3.994-2.073a.5.5 0 0 0-.46-.887l-3.551 1.842-1.843-3.55a.5.5 0 1 0-.887.46l2.073 3.995Zm94.97-25.559-.5-.018v.004l-.001.018a7.023 7.023 0 0 1-.026.37c-.022.26-.061.64-.13 1.114a24.22 24.22 0 0 1-.854 3.746c-.929 2.964-2.69 6.531-6.018 9.065-6.603 5.028-19.744 6.22-45.857-10.64l-.542.84c26.16 16.891 39.848 16.045 47.005 10.595 3.552-2.705 5.403-6.486 6.367-9.56.483-1.54.746-2.914.889-3.903a20.289 20.289 0 0 0 .16-1.493l.005-.087v-.023l.001-.006v-.002c0-.001 0-.002-.5-.02ZM44.048 4.98C36.874.346 30.642-.66 25.326.509c-5.3 1.165-9.61 4.474-12.989 8.32-3.378 3.848-5.853 8.265-7.48 11.71a60.1 60.1 0 0 0-1.822 4.267 43.614 43.614 0 0 0-.593 1.659l-.007.023-.002.006v.002l.476.151.476.151.002-.005a3.074 3.074 0 0 1 .033-.102c.024-.072.06-.18.109-.32.097-.28.243-.692.44-1.21a59.098 59.098 0 0 1 1.791-4.194c1.606-3.397 4.034-7.725 7.33-11.477 3.296-3.754 7.432-6.901 12.452-8.004 5.004-1.1 10.967-.186 17.966 4.333l.542-.84Z"/></svg>
